X: 1624
T: Joe Yates Unnamed Polka No 1
B: australian traditional tunes wiki
M:2/4
L:1/16
R: Polka
Q: 1/4=100
K:D
V:1 
|:FG|"D"A2B2 AFDF|A2B2 AFDF|"D"A2d2 "A7"c2B2|c2B2 "D"AFDF|"D"A2B2 AFDF|A2B2 AFDF|"A7"A2g2 f2e2|f2e2 "D"d2:|
E2|"D"F4A2d2|f4"A7"e3f|"D"e2d2 F2B2|"A7"A4G4|"Em"E3F G2A2|"A7"c6B2|A2BA "G"G2AG|"D"F2GF "A7"E2FE|
"D"D3F A2d2|f4"A7"e3f|"D"e2d2 F2B2|"A7"A4G4|"Em"E3F G2A2|"A7"c6 (3BcB|A2A2 B2c2|"D"d4d2||
% abcbook-tune_id 6342d53a6ba9d71624b95168


% abcbook-boost 0
% abcbook-tablature 
% abcbook-transpose 
% abcbook-lastupdated 1665324374665
% abcbook-soundfonts 
% abcbook-repeats 1
% NFF Book 2009

